X:1
T:Shipwrecked, but Not Lost!
T:Shipwrecked, but Not Lost!
T:Henry Lake Gilmour
T:Henry Lake Gilmour, 1907
T:Public Domain Courtesy of the Cyber Hymnal™
T:Public Domain Courtesy of the Cyber Hymnal™
C:Henry Lake Gilmour
Z:Public Domain
Z:Courtesy of the Cyber Hymnal™
%%score 1 ( 2 3 )
L:1/8
Q:1/4=95
M:4/4
K:Eb
V:1 treble 
V:2 bass 
V:3 bass 
V:1
 [EG]2 | [Ec]3 [EG] [EG]3 [EG] | [FA]>[FG] [FA][F=A] [FB]3 [DB] | [DB]3 [DF] [DF]3 [_DG] | %4
w: 1.~O|ship- wrecked soul, far|out on sin’s dark wave, With|no help near, no|
w: 2.~O|ship- wrecked soul, no|wave can drown the voice Of|Him who speaks to|
w: 3.~O|ship- wrecked soul, He|waits with pi- tying eye Be-|hold- ing thee; He’ll|
w: 4.~Ship-|wrecked, not lost be-|neath the crest- ed wave; For|Christ was near; that|
 [CA][EB] [Ad]>[Fd] [Fd]3 [Fd] | [Ee]3 [Ge] [Ge]3 [Fd] | [Ec]>[GB] [FA][=EG] [FA]3 [F=A] | %7
w: life- line thrown to save; No|boat to launch, no|crew with cour- age brave; Thy|
w: make thy soul re- joice; ’Midst|tem- pest swirl, make|Je- sus now thy choice; Thy|
w: hear thy help- less cry; O|ven- ture now, trust|ful- ly, He is nigh; Thy|
w: Gal- i- le- an brave, Who|holds a scep- ter|in His hand, will save; Thy|
"^rit." [FB]3 [FB] [EB]3 [EG] | [DF]4 [B,E]4 ||[M:6/8]"^Refrain" [Ge]>[Ge][Ge] [Ge][Ad][Ac] | %10
w: on- ly help is|Je- sus.||
w: on- ly help is|Je- sus.||
w: on- ly help is|Je- sus.||
w: on- ly help is|Je- sus.||
 ([GB][EG])[Ec] [EB]3 | [Ad]>[Ad][Ad] [Ad][Ac][GB] | ([FA][DF])[DB] [EG]3 | %13
w: |||
w: |||
w: |||
w: |||
 [EG]>[EG][EG] [EG][EG][EG] | [EA]2 [EB] [Ec]3 |"^rit." [EB]2 [EG] [EB]2 [EG] | [DF]3 [B,E]3 |] %17
w: ||||
w: ||||
w: ||||
w: ||||
V:2
 [C,C]2 | [C,G,]3 [C,C] [C,C]3 [C,C] | [F,C]>[F,C] [F,C][E,C] [D,B,]3 [B,,F,] | %3
w: ~|~ ~ ~ ~|~ ~ ~ ~ ~ ~|
 [B,,F,]3 [B,,B,] [B,,B,]3 [E,B,] | A,[G,B,] [F,B,]>[=B,,G,] [B,,G,]3 [B,,G,] | %5
w: ~ ~ ~ ~|~ ~ ~ ~ ~ ~|
 [C,G,]3 [C,C] [C,C]3 [G,=B,] | A,>[=E,C] [F,C][C,C] [F,C]3 [_E,C] | %7
w: ~ ~ ~ ~|~ ~ ~ ~ ~ ~|
 [D,B,]3 [D,B,] [E,G,]3 [E,B,] | [B,,A,]4 [E,G,]4 ||[M:6/8] [E,B,]>[E,B,][E,B,] [E,C][E,C][E,D] | %10
w: ~ ~ ~ ~|~ ~|Je- sus has con- quered the|
 (EB,)[E,A,] [E,G,]3 | [B,,B,]>[B,,B,][B,,B,] [B,,B,][B,,B,][B,,B,] | [B,,B,]2 [B,,B,] [E,B,]3 | %13
w: storm * tossed sea,|Walked the wild bil- lows of|Gal- i- lee;|
 [E,B,]>[E,B,][E,B,] [E,B,][E,B,][_D,B,] | [C,A,]2 [B,,G,] [=A,,^F,]3 | %15
w: He is the Sav- ior for|thee, and me:|
 [B,,G,]2 [B,,B,] [B,,G,]2 [B,,B,] | [B,,A,]3 [E,G,]3 |] %17
w: Je- sus, on- ly|Je- sus.|
V:3
 x2 | x8 | x8 | x8 | A, x7 | x8 | A,3/2 x13/2 | x8 | x8 ||[M:6/8] x6 | E,2 x4 | x6 | x6 | x6 | x6 | %15
 x6 | x6 |] %17

